;FLAVOR:Marlin
;TIME:11830
;Filament used: 6.74898m
;Layer height: 0.2
;MINX:47.538
;MINY:51.702
;MINZ:0.2
;MAXX:157.069
;MAXY:146
;MAXZ:17
;TARGET_MACHINE.NAME:Creality Ender-3
;Generated with Cura_SteamEngine 5.7.1
M140 S50
M105
M190 S50
M104 S200
M105
M109 S200
M82 ;absolute extrusion mode
; Ender 3 Custom Start G-code
G92 E0 ; Reset Extruder
G28 ; Home all axes
G1 Z2.0 F3000 ; Move Z Axis up little to prevent scratching of Heat Bed
G1 X0.1 Y20 Z0.3 F5000.0 ; Move to start position
G1 X0.1 Y200.0 Z0.3 F1500.0 E15 ; Draw the first line
G1 X0.4 Y200.0 Z0.3 F5000.0 ; Move to side a little
G1 X0.4 Y20 Z0.3 F1500.0 E30 ; Draw the second line
G92 E0 ; Reset Extruder
G1 Z2.0 F3000 ; Move Z Axis up little to prevent scratching of Heat Bed
G1 X5 Y20 Z0.3 F5000.0 ; Move over to prevent blob squish
G92 E0
G92 E0
G1 F2700 E-5
;LAYER_COUNT:85
;LAYER:0
M107
G0 F6000 X53.861 Y75.227 Z0.2
;TYPE:SKIRT
G1 F2700 E0
G1 F1200 X54.683 Y74.698 E0.03251
G1 X55.628 Y74.205 E0.06796
G1 X57.338 Y73.432 E0.13038
G1 X59.576 Y72.366 E0.21283
G1 X61.575 Y71.353 E0.28736
G1 X62.425 Y70.969 E0.31839
G1 X63.086 Y70.729 E0.34178
G1 X63.806 Y70.493 E0.36698
G1 X65.295 Y70.029 E0.41885
G1 X67.671 Y69.213 E0.50241
G1 X70.055 Y68.319 E0.58709
G1 X72.328 Y67.393 E0.66872
G1 X74.678 Y66.356 E0.75416
G1 X76.957 Y65.272 E0.83809
G1 X79.146 Y64.154 E0.91985
G1 X81.406 Y62.919 E1.00551
G1 X83.562 Y61.659 E1.08856
G1 X85.671 Y60.346 E1.17119
G1 X87.829 Y58.917 E1.25728
G1 X89.833 Y57.506 E1.33879
G1 X91.901 Y55.96 E1.42467
G1 X93.552 Y54.659 E1.49459
G1 X94.201 Y54.136 E1.52231
G1 X94.986 Y53.56 E1.55469
G1 X95.788 Y53.073 E1.5859
G1 X96.695 Y52.628 E1.6195
G1 X97.603 Y52.28 E1.65184
G1 X98.539 Y52.011 E1.68423
G1 X99.425 Y51.838 E1.71426
G1 X100.757 Y51.717 E1.75874
G1 X101.396 Y51.702 E1.78
G1 X132.388 Y51.702 E2.8108
G1 X133.268 Y51.715 E2.84007
G1 X134.24 Y51.774 E2.87246
G1 X135.203 Y51.92 E2.90486
G1 X136.15 Y52.151 E2.93728
G1 X137.038 Y52.451 E2.96845
G1 X137.93 Y52.841 E3.00083
G1 X138.813 Y53.328 E3.03437
G1 X139.564 Y53.83 E3.06442
G1 X140.379 Y54.488 E3.09926
G1 X141.077 Y55.166 E3.13162
G1 X141.713 Y55.903 E3.164
G1 X142.283 Y56.693 E3.1964
G1 X142.745 Y57.469 E3.22644
G1 X143.199 Y58.411 E3.26122
G1 X143.528 Y59.289 E3.2924
G1 X143.797 Y60.261 E3.32595
G1 X143.974 Y61.227 E3.35861
G1 X144.069 Y62.357 E3.39633
G1 X144.084 Y63.014 E3.41819
G1 X144.084 Y73.865 E3.77909
G1 X144.121 Y76.445 E3.86491
G1 X144.23 Y79.01 E3.9503
G1 X144.404 Y81.473 E4.03242
G1 X144.653 Y83.99 E4.11655
G1 X144.974 Y86.498 E4.20065
G1 X145.36 Y88.959 E4.2835
G1 X145.818 Y91.424 E4.36689
G1 X146.355 Y93.916 E4.45168
G1 X146.948 Y96.34 E4.53468
G1 X147.619 Y98.784 E4.61897
G1 X148.352 Y101.175 E4.70215
G1 X149.163 Y103.577 E4.78647
G1 X150.037 Y105.948 E4.87052
G1 X150.955 Y108.233 E4.95242
G1 X151.987 Y110.604 E5.03843
G1 X153.048 Y112.87 E5.12165
G1 X154.165 Y115.091 E5.20433
G1 X154.624 Y115.936 E5.23632
G1 X154.713 Y116.118 E5.24306
G1 X155.311 Y117.24 E5.28534
G1 X155.73 Y118.125 E5.31791
G1 X156.116 Y119.19 E5.35559
G1 X156.497 Y120.454 E5.3995
G1 X156.686 Y121.148 E5.42342
G1 X156.898 Y122.099 E5.45583
G1 X157.027 Y123.064 E5.48821
G1 X157.069 Y124.037 E5.5206
G1 X157.025 Y125.009 E5.55296
G1 X156.907 Y125.905 E5.58302
G1 X156.692 Y126.875 E5.61607
G1 X156.367 Y128.08 E5.65758
G1 X156.138 Y128.852 E5.68436
G1 X155.819 Y129.773 E5.71678
G1 X155.421 Y130.661 E5.74914
G1 X154.944 Y131.511 E5.78156
G1 X154.386 Y132.326 E5.81441
G1 X153.511 Y133.353 E5.85929
G1 X152.756 Y134.128 E5.89528
G1 X152.051 Y134.818 E5.92809
G1 X151.321 Y135.469 E5.96062
G1 X150.491 Y136.083 E5.99496
G1 X147.876 Y137.818 E6.09933
G1 X145.876 Y139.235 E6.18086
G1 X143.825 Y140.773 E6.26612
G1 X141.871 Y142.329 E6.3492
G1 X140.514 Y143.46 E6.40796
G1 X139.737 Y144.048 E6.44037
G1 X138.943 Y144.546 E6.47154
G1 X138.045 Y145.005 E6.50508
G1 X137.141 Y145.369 E6.5375
G1 X136.277 Y145.633 E6.56754
G1 X135.255 Y145.847 E6.60227
G1 X134.359 Y145.955 E6.63229
G1 X133.827 Y145.985 E6.65001
G1 X133.17 Y146 E6.67187
G1 X97.049 Y145.999 E7.87326
G1 X96.331 Y145.988 E7.89714
G1 X95.343 Y145.928 E7.93006
G1 X94.379 Y145.782 E7.96249
G1 X93.432 Y145.551 E7.99491
G1 X92.576 Y145.263 E8.02495
G1 X91.62 Y144.844 E8.05967
G1 X90.767 Y144.373 E8.09208
G1 X89.96 Y143.828 E8.12447
G1 X89.205 Y143.215 E8.15681
G1 X88.504 Y142.537 E8.18925
G1 X87.868 Y141.799 E8.22165
G1 X87.301 Y141.009 E8.25399
G1 X86.82 Y140.201 E8.28527
G1 X86.362 Y139.243 E8.32059
G1 X85.928 Y138.208 E8.35792
G1 X84.885 Y135.814 E8.44477
G1 X83.817 Y133.538 E8.52839
G1 X82.668 Y131.261 E8.61322
G1 X81.494 Y129.092 E8.69525
G1 X80.235 Y126.918 E8.77881
G1 X78.908 Y124.763 E8.86298
G1 X77.509 Y122.629 E8.94785
G1 X76.084 Y120.584 E9.03075
G1 X74.6 Y118.581 E9.11366
G1 X73.046 Y116.6 E9.19741
G1 X71.409 Y114.631 E9.28257
G1 X69.77 Y112.771 E9.36503
G1 X68.028 Y110.901 E9.45003
G1 X66.292 Y109.142 E9.53223
G1 X64.447 Y107.375 E9.6172
G1 X62.609 Y105.711 E9.69966
G1 X60.652 Y104.038 E9.78529
G1 X58.716 Y102.475 E9.86805
G1 X56.736 Y100.97 E9.95077
G1 X54.668 Y99.483 E10.03549
G1 X53.966 Y98.99 E10.06402
G1 X53.203 Y98.403 E10.09604
G1 X52.671 Y97.927 E10.11978
G1 X52.322 Y97.589 E10.13594
G1 X51.175 Y96.431 E10.19015
G1 X50.523 Y95.709 E10.22251
G1 X49.978 Y94.99 E10.25252
G1 X49.422 Y94.102 E10.28736
G1 X49.013 Y93.297 E10.31739
G1 X48.486 Y91.906 E10.36687
G1 X48.122 Y90.696 E10.40889
G1 X47.933 Y90.019 E10.43227
G1 X47.717 Y89.07 E10.46464
G1 X47.586 Y88.105 E10.49703
G1 X47.538 Y87.131 E10.52947
G1 X47.579 Y86.161 E10.56176
G1 X47.699 Y85.229 E10.59301
G1 X47.932 Y84.179 E10.62879
G1 X48.146 Y83.405 E10.6555
G1 X48.495 Y82.251 E10.69559
G1 X48.821 Y81.332 E10.72803
G1 X49.212 Y80.478 E10.75927
G1 X49.712 Y79.602 E10.79281
G1 X50.248 Y78.83 E10.82407
G1 X50.926 Y78.021 E10.85918
G1 X51.659 Y77.229 E10.89507
G1 X52.38 Y76.489 E10.92944
G1 X53.092 Y75.826 E10.9618
G1 X53.861 Y75.227 E10.99422
G0 F6000 X54.078 Y75.563
G1 F1200 X54.868 Y75.053 E11.02549
G1 X55.795 Y74.569 E11.06027
G1 X56.875 Y74.074 E11.09979
G1 X57.5 Y73.798 E11.12251
G1 X59.757 Y72.723 E11.20566
G1 X61.74 Y71.718 E11.2796
G1 X62.59 Y71.334 E11.31062
G1 X63.211 Y71.109 E11.33259
G1 X63.925 Y70.875 E11.35758
G1 X65.414 Y70.411 E11.40946
G1 X67.811 Y69.588 E11.49375
G1 X70.195 Y68.694 E11.57843
G1 X72.489 Y67.759 E11.66083
G1 X74.839 Y66.722 E11.74626
G1 X77.129 Y65.633 E11.8306
G1 X79.338 Y64.505 E11.91309
G1 X81.598 Y63.27 E11.99875
G1 X83.773 Y61.999 E12.08254
G1 X85.892 Y60.68 E12.16556
G1 X88.05 Y59.251 E12.25164
G1 X90.073 Y57.826 E12.33394
G1 X92.141 Y56.28 E12.41982
G1 X93.8 Y54.973 E12.49007
G1 X94.438 Y54.458 E12.51734
G1 X95.194 Y53.902 E12.54855
G1 X95.996 Y53.415 E12.57976
G1 X96.839 Y53.001 E12.611
G1 X97.714 Y52.664 E12.64218
G1 X98.616 Y52.404 E12.6734
G1 X99.502 Y52.231 E12.70343
G1 X100.766 Y52.117 E12.74564
G1 X101.405 Y52.102 E12.7669
G1 X132.382 Y52.102 E13.7972
G1 X133.244 Y52.114 E13.82587
G1 X134.181 Y52.17 E13.85709
G1 X135.109 Y52.309 E13.8883
G1 X136.022 Y52.53 E13.91955
G1 X136.878 Y52.818 E13.94958
G1 X137.77 Y53.208 E13.98196
G1 X138.591 Y53.661 E14.01315
G1 X139.342 Y54.163 E14.0432
G1 X140.101 Y54.775 E14.07562
G1 X140.775 Y55.428 E14.10684
G1 X141.389 Y56.137 E14.13803
G1 X141.939 Y56.898 E14.16926
G1 X142.401 Y57.674 E14.1993
G1 X142.824 Y58.551 E14.23168
G1 X143.153 Y59.429 E14.26287
G1 X143.404 Y60.334 E14.29411
G1 X143.575 Y61.261 E14.32546
G1 X143.67 Y62.391 E14.36318
G1 X143.684 Y63.023 E14.3842
G1 X143.684 Y73.865 E14.74481
G1 X143.721 Y76.462 E14.83119
G1 X143.83 Y79.027 E14.91658
G1 X144.006 Y81.512 E14.99944
G1 X144.256 Y84.041 E15.08397
G1 X144.577 Y86.549 E15.16806
G1 X144.967 Y89.032 E15.25166
G1 X145.427 Y91.508 E15.33542
G1 X145.966 Y94.011 E15.42058
G1 X146.562 Y96.446 E15.50396
G1 X147.234 Y98.89 E15.58826
G1 X147.973 Y101.303 E15.6722
G1 X148.784 Y103.705 E15.75652
G1 X149.666 Y106.097 E15.84132
G1 X150.588 Y108.393 E15.92361
G1 X151.62 Y110.764 E16.00961
G1 X152.691 Y113.05 E16.09358
G1 X153.814 Y115.282 E16.17668
G1 X154.265 Y116.112 E16.2081
G1 X154.36 Y116.306 E16.21528
G1 X154.95 Y117.412 E16.25698
G1 X155.354 Y118.261 E16.28825
G1 X155.733 Y119.306 E16.32522
G1 X156.111 Y120.559 E16.36875
G1 X156.296 Y121.236 E16.39209
G1 X156.502 Y122.152 E16.42332
G1 X156.627 Y123.082 E16.45453
G1 X156.669 Y124.02 E16.48576
G1 X156.628 Y124.957 E16.51695
G1 X156.51 Y125.853 E16.54701
G1 X156.306 Y126.771 E16.57829
G1 X155.983 Y127.967 E16.61949
G1 X155.76 Y128.722 E16.64568
G1 X155.454 Y129.61 E16.67692
G1 X155.072 Y130.466 E16.70809
G1 X154.614 Y131.286 E16.73933
G1 X154.081 Y132.067 E16.77078
G1 X153.224 Y133.074 E16.81476
G1 X152.476 Y133.842 E16.85042
G1 X151.784 Y134.52 E16.88264
G1 X151.083 Y135.147 E16.91392
G1 X150.253 Y135.761 E16.94826
G1 X147.655 Y137.485 E17.05197
G1 X145.636 Y138.915 E17.13425
G1 X143.585 Y140.453 E17.21952
G1 X141.622 Y142.016 E17.30298
G1 X140.272 Y143.141 E17.36143
G1 X139.524 Y143.709 E17.39267
G1 X138.73 Y144.207 E17.42384
G1 X137.895 Y144.634 E17.45503
G1 X137.024 Y144.986 E17.48628
G1 X136.16 Y145.25 E17.51633
G1 X135.207 Y145.45 E17.54871
G1 X134.311 Y145.558 E17.57873
G1 X133.818 Y145.585 E17.59515
G1 X133.17 Y145.6 E17.61671
G1 X97.055 Y145.599 E18.8179
G1 X96.355 Y145.589 E18.84118
G1 X95.402 Y145.532 E18.87294
G1 X94.473 Y145.393 E18.90418
G1 X93.56 Y145.172 E18.93542
G1 X92.704 Y144.884 E18.96546
G1 X91.813 Y144.494 E18.99781
G1 X90.99 Y144.041 E19.02906
G1 X90.212 Y143.517 E19.06026
G1 X89.483 Y142.927 E19.09145
G1 X88.807 Y142.275 E19.12269
G1 X88.193 Y141.565 E19.15391
G1 X87.645 Y140.804 E19.1851
G1 X87.164 Y139.996 E19.21637
G1 X86.731 Y139.088 E19.24983
G1 X86.297 Y138.053 E19.28716
G1 X85.252 Y135.654 E19.37419
G1 X84.179 Y133.368 E19.45818
G1 X83.025 Y131.081 E19.54338
G1 X81.846 Y128.902 E19.62579
G1 X80.576 Y126.708 E19.7101
G1 X79.249 Y124.553 E19.79428
G1 X77.844 Y122.41 E19.87951
G1 X76.412 Y120.355 E19.96282
G1 X74.915 Y118.334 E20.04647
G1 X73.361 Y116.353 E20.13021
G1 X71.716 Y114.375 E20.21577
G1 X70.063 Y112.498 E20.29896
G1 X68.321 Y110.628 E20.38396
G1 X66.577 Y108.861 E20.46654
G1 X64.724 Y107.086 E20.55188
G1 X62.877 Y105.414 E20.63475
G1 X60.912 Y103.734 E20.72073
G1 X58.967 Y102.164 E20.80387
G1 X56.97 Y100.645 E20.88732
G1 X54.902 Y99.158 E20.97204
G1 X54.21 Y98.673 E21.00015
G1 X53.47 Y98.105 E21.03117
G1 X52.949 Y97.639 E21.05442
G1 X52.606 Y97.308 E21.07027
G1 X51.472 Y96.163 E21.12387
G1 X50.842 Y95.467 E21.1551
G1 X50.297 Y94.748 E21.18511
G1 X49.779 Y93.921 E21.21756
G1 X49.37 Y93.116 E21.24759
G1 X48.869 Y91.791 E21.29471
G1 X48.507 Y90.588 E21.33649
G1 X48.323 Y89.929 E21.35925
G1 X48.113 Y89.015 E21.39044
G1 X47.985 Y88.085 E21.42167
G1 X47.938 Y87.147 E21.4529
G1 X47.976 Y86.211 E21.48406
G1 X48.09 Y85.315 E21.5141
G1 X48.318 Y84.285 E21.54919
G1 X48.529 Y83.521 E21.57555
G1 X48.872 Y82.384 E21.61505
G1 X49.185 Y81.499 E21.64627
G1 X49.576 Y80.645 E21.67751
G1 X50.041 Y79.83 E21.70872
G1 X50.555 Y79.087 E21.73877
G1 X51.233 Y78.278 E21.77388
G1 X51.946 Y77.508 E21.80878
G1 X52.653 Y76.781 E21.84251
G1 X53.338 Y76.141 E21.87369
G1 X54.078 Y75.563 E21.90492
G0 F6000 X54.296 Y75.899
G1 F1200 X55.053 Y75.408 E21.93493
G1 X55.962 Y74.933 E21.96904
G1 X57.037 Y74.44 E22.00838
G1 X57.662 Y74.164 E22.0311
G1 X59.938 Y73.08 E22.11495
G1 X61.905 Y72.082 E22.18831
G1 X62.727 Y71.71 E22.21832
G1 X63.335 Y71.489 E22.23984
G1 X64.044 Y71.257 E22.26465
G1 X65.533 Y70.793 E22.31652
G1 X67.951 Y69.963 E22.40155
G1 X70.335 Y69.069 E22.48624
G1 X72.65 Y68.125 E22.56939
G1 X75 Y67.088 E22.65482
G1 X77.301 Y65.994 E22.73956
G1 X79.53 Y64.856 E22.8228
G1 X81.79 Y63.621 E22.90846
G1 X83.984 Y62.339 E22.99298
G1 X86.113 Y61.014 E23.07638
G1 X88.271 Y59.585 E23.16247
G1 X90.303 Y58.153 E23.24515
G1 X92.389 Y56.594 E23.33177
G1 X94.048 Y55.287 E23.40201
G1 X94.675 Y54.78 E23.42883
G1 X95.402 Y54.244 E23.45887
G1 X96.173 Y53.774 E23.4889
G1 X96.983 Y53.374 E23.51895
G1 X97.825 Y53.048 E23.54898
G1 X98.693 Y52.797 E23.57903
G1 X99.579 Y52.624 E23.60906
G1 X100.775 Y52.517 E23.649
G1 X101.414 Y52.502 E23.67026
G1 X132.377 Y52.502 E24.70009
G1 X133.221 Y52.513 E24.72816
G1 X134.123 Y52.566 E24.75822
G1 X135.016 Y52.698 E24.78824
G1 X135.894 Y52.909 E24.81827
G1 X136.75 Y53.197 E24.84831
G1 X137.577 Y53.559 E24.87834
G1 X138.369 Y53.994 E24.90839
G1 X139.12 Y54.496 E24.93844
G1 X139.823 Y55.063 E24.96848
G1 X140.473 Y55.69 E24.99851
G1 X141.065 Y56.372 E25.02855
G1 X141.595 Y57.103 E25.05858
G1 X142.057 Y57.879 E25.08862
G1 X142.45 Y58.692 E25.11866
G1 X142.768 Y59.537 E25.14868
G1 X143.011 Y60.407 E25.17873
G1 X143.176 Y61.295 E25.20877
G1 X143.271 Y62.425 E25.24649
G1 X143.284 Y63.032 E25.26668
G1 X143.284 Y73.865 E25.62699
G1 X143.321 Y76.479 E25.71394
G1 X143.43 Y79.044 E25.79933
G1 X143.608 Y81.551 E25.88292
G1 X143.859 Y84.092 E25.96784
G1 X144.18 Y86.6 E26.05194
G1 X144.574 Y89.105 E26.13628
G1 X145.036 Y91.592 E26.22041
G1 X145.577 Y94.106 E26.30595
G1 X146.176 Y96.552 E26.3897
G1 X146.849 Y98.996 E26.47402
G1 X147.594 Y101.431 E26.55871
G1 X148.405 Y103.833 E26.64303
G1 X149.295 Y106.246 E26.72857
G1 X150.221 Y108.553 E26.81126
G1 X151.253 Y110.924 E26.89726
G1 X152.334 Y113.23 E26.98197
G1 X153.463 Y115.473 E27.06549
G1 X153.906 Y116.287 E27.09631
G1 X154.007 Y116.494 E27.10397
G1 X154.589 Y117.584 E27.14507
G1 X154.978 Y118.398 E27.17508
G1 X155.35 Y119.421 E27.21128
G1 X155.725 Y120.665 E27.2545
G1 X155.906 Y121.325 E27.27726
G1 X156.106 Y122.206 E27.30731
G1 X156.227 Y123.101 E27.33735
G1 X156.269 Y124.003 E27.36738
G1 X156.231 Y124.905 E27.39741
G1 X156.113 Y125.801 E27.42746
G1 X155.92 Y126.667 E27.45697
G1 X155.599 Y127.854 E27.49787
G1 X155.382 Y128.592 E27.52346
G1 X155.089 Y129.447 E27.55352
G1 X154.722 Y130.272 E27.58355
G1 X154.283 Y131.061 E27.61358
G1 X153.776 Y131.808 E27.64361
G1 X152.919 Y132.815 E27.68759
G1 X152.196 Y133.556 E27.72202
G1 X151.517 Y134.222 E27.75366
G1 X150.845 Y134.825 E27.78369
G1 X150.015 Y135.439 E27.81802
G1 X147.434 Y137.152 E27.92106
G1 X145.396 Y138.595 E28.00411
G1 X143.345 Y140.133 E28.08938
G1 X141.373 Y141.703 E28.17321
G1 X140.03 Y142.823 E28.23138
G1 X139.311 Y143.37 E28.26142
G1 X138.547 Y143.851 E28.29145
G1 X137.744 Y144.263 E28.32147
G1 X136.907 Y144.603 E28.35152
G1 X136.043 Y144.867 E28.38157
G1 X135.159 Y145.053 E28.41161
G1 X134.263 Y145.161 E28.44163
G1 X133.809 Y145.185 E28.45675
G1 X133.17 Y145.2 E28.47801
G1 X97.061 Y145.199 E29.679
G1 X96.361 Y145.189 E29.70228
G1 X95.46 Y145.136 E29.7323
G1 X94.566 Y145.004 E29.76236
G1 X93.688 Y144.793 E29.79239
G1 X92.832 Y144.505 E29.82243
G1 X92.005 Y144.143 E29.85246
G1 X91.213 Y143.709 E29.8825
G1 X90.463 Y143.206 E29.91253
G1 X89.76 Y142.639 E29.94257
G1 X89.109 Y142.013 E29.97261
G1 X88.517 Y141.331 E30.00265
G1 X87.988 Y140.599 E30.03269
G1 X87.525 Y139.824 E30.06271
G1 X87.1 Y138.933 E30.09555
G1 X86.666 Y137.898 E30.13287
G1 X85.619 Y135.494 E30.22008
G1 X84.541 Y133.198 E30.30445
G1 X83.382 Y130.901 E30.39002
G1 X82.198 Y128.712 E30.4728
G1 X80.917 Y126.498 E30.55787
G1 X79.59 Y124.343 E30.64205
G1 X78.179 Y122.191 E30.72763
G1 X76.74 Y120.126 E30.81135
G1 X75.23 Y118.087 E30.89574
G1 X73.676 Y116.106 E30.97948
G1 X72.023 Y114.119 E31.06545
G1 X70.356 Y112.225 E31.14937
G1 X68.614 Y110.355 E31.23437
G1 X66.862 Y108.58 E31.31732
G1 X65.001 Y106.797 E31.40304
G1 X63.145 Y105.117 E31.4863
G1 X61.172 Y103.43 E31.57264
G1 X59.218 Y101.853 E31.65616
G1 X57.204 Y100.32 E31.74034
G1 X55.136 Y98.833 E31.82506
G1 X54.453 Y98.356 E31.85277
G1 X53.736 Y97.806 E31.88282
G1 X53.227 Y97.352 E31.90551
G1 X52.89 Y97.026 E31.9211
G1 X51.768 Y95.894 E31.97412
G1 X51.161 Y95.225 E32.00416
G1 X50.616 Y94.506 E32.03417
G1 X50.136 Y93.74 E32.06423
G1 X49.727 Y92.935 E32.09427
G1 X49.252 Y91.676 E32.13902
G1 X48.892 Y90.481 E32.18053
G1 X48.713 Y89.839 E32.2027
G1 X48.509 Y88.96 E32.23271
G1 X48.384 Y88.065 E32.26277
G1 X48.338 Y87.163 E32.29281
G1 X48.373 Y86.261 E32.32283
G1 X48.487 Y85.365 E32.35287
G1 X48.704 Y84.391 E32.38606
G1 X48.912 Y83.636 E32.41211
G1 X49.249 Y82.517 E32.45098
G1 X49.549 Y81.665 E32.48102
G1 X49.924 Y80.843 E32.51107
G1 X50.37 Y80.058 E32.5411
