;FLAVOR:Marlin
;TIME:17400
;Filament used: 12.928m
;Layer height: 0.2
;MINX:66.595
;MINY:68.785
;MINZ:0.2
;MAXX:181.124
;MAXY:158.959
;MAXZ:38
;TARGET_MACHINE.NAME:Creality Ender-3
;Generated with Cura_SteamEngine 5.7.1
M140 S50
M105
M190 S50
M104 S200
M105
M109 S200
M82 ;absolute extrusion mode
; Ender 3 Custom Start G-code
G92 E0 ; Reset Extruder
G28 ; Home all axes
G1 Z2.0 F3000 ; Move Z Axis up little to prevent scratching of Heat Bed
G1 X0.1 Y20 Z0.3 F5000.0 ; Move to start position
G1 X0.1 Y200.0 Z0.3 F1500.0 E15 ; Draw the first line
G1 X0.4 Y200.0 Z0.3 F5000.0 ; Move to side a little
G1 X0.4 Y20 Z0.3 F1500.0 E30 ; Draw the second line
G92 E0 ; Reset Extruder
G1 Z2.0 F3000 ; Move Z Axis up little to prevent scratching of Heat Bed
G1 X5 Y20 Z0.3 F5000.0 ; Move over to prevent blob squish
G92 E0
G92 E0
G1 F2700 E-5
;LAYER_COUNT:190
;LAYER:0
M107
G0 F6000 X71.681 Y73.105 Z0.2
;TYPE:SKIRT
G1 F2700 E0
G1 F1200 X72.201 Y72.647 E0.02305
G1 X72.633 Y72.287 E0.04175
G1 X73.537 Y71.612 E0.07927
G1 X74.259 Y71.15 E0.10778
G1 X74.772 Y70.848 E0.12758
G1 X75.83 Y70.301 E0.1672
G1 X76.499 Y70.012 E0.19144
G1 X77.041 Y69.798 E0.21082
G1 X78.201 Y69.415 E0.25145
G1 X78.864 Y69.247 E0.2742
G1 X79.424 Y69.12 E0.29329
G1 X80.579 Y68.927 E0.33224
G1 X81.423 Y68.848 E0.36044
G1 X82.083 Y68.808 E0.38243
G1 X82.71 Y68.79 E0.40329
G1 X93.897 Y68.785 E0.77537
G1 X94.945 Y68.804 E0.81024
G1 X95.663 Y68.84 E0.83415
G1 X96.256 Y68.892 E0.85395
G1 X97.152 Y69.009 E0.884
G1 X97.69 Y69.116 E0.90224
G1 X98.605 Y69.323 E0.93345
G1 X99.624 Y69.606 E0.96862
G1 X102.549 Y70.578 E1.07114
G1 X104.966 Y71.301 E1.15505
G1 X107.398 Y71.953 E1.23879
G1 X109.789 Y72.522 E1.32054
G1 X112.344 Y73.055 E1.40735
G1 X114.786 Y73.493 E1.48986
G1 X117.275 Y73.866 E1.57357
G1 X119.798 Y74.172 E1.6581
G1 X122.241 Y74.399 E1.73971
G1 X124.795 Y74.563 E1.82483
G1 X127.323 Y74.653 E1.90896
G1 X129.267 Y74.675 E1.97363
G1 X169.575 Y74.676 E3.31428
G1 X170.308 Y74.688 E3.33866
G1 X171.28 Y74.747 E3.37105
G1 X172.243 Y74.893 E3.40344
G1 X173.19 Y75.124 E3.43586
G1 X174.078 Y75.424 E3.46704
G1 X174.97 Y75.814 E3.49942
G1 X175.853 Y76.301 E3.53296
G1 X176.604 Y76.803 E3.563
G1 X177.419 Y77.461 E3.59784
G1 X178.117 Y78.139 E3.63021
G1 X178.753 Y78.876 E3.66258
G1 X179.323 Y79.666 E3.69498
G1 X179.785 Y80.442 E3.72502
G1 X180.239 Y81.384 E3.7598
G1 X180.568 Y82.262 E3.79099
G1 X180.837 Y83.234 E3.82453
G1 X181.014 Y84.2 E3.8572
G1 X181.109 Y85.33 E3.89491
G1 X181.124 Y86.005 E3.91737
G1 X181.123 Y133.372 E5.4928
G1 X181.111 Y134.132 E5.51808
G1 X181.053 Y135.105 E5.5505
G1 X180.907 Y136.068 E5.5829
G1 X180.676 Y137.015 E5.61532
G1 X180.363 Y137.937 E5.6477
G1 X179.971 Y138.828 E5.68008
G1 X179.519 Y139.65 E5.71128
G1 X178.956 Y140.488 E5.74486
G1 X178.342 Y141.246 E5.7773
G1 X177.666 Y141.944 E5.80962
G1 X176.985 Y142.537 E5.83965
G1 X176.137 Y143.148 E5.87442
G1 X175.299 Y143.647 E5.90686
G1 X174.454 Y144.053 E5.93804
G1 X173.503 Y144.41 E5.97182
G1 X172.435 Y144.698 E6.00861
G1 X169.631 Y145.303 E6.10402
G1 X167.238 Y145.894 E6.186
G1 X164.784 Y146.57 E6.27067
G1 X162.378 Y147.31 E6.35439
G1 X160 Y148.115 E6.43789
G1 X157.623 Y148.995 E6.52219
G1 X155.311 Y149.927 E6.6051
G1 X152.967 Y150.949 E6.69015
G1 X150.718 Y152.005 E6.77279
G1 X148.452 Y153.15 E6.85723
G1 X146.253 Y154.339 E6.94038
G1 X143.147 Y156.159 E7.06011
G1 X142.52 Y156.541 E7.08453
G1 X141.667 Y157.009 E7.11689
G1 X140.779 Y157.398 E7.14914
G1 X139.986 Y157.671 E7.17703
G1 X138.974 Y157.974 E7.21217
G1 X137.484 Y158.393 E7.26365
G1 X136.73 Y158.595 E7.28961
G1 X135.779 Y158.801 E7.32198
G1 X134.812 Y158.923 E7.35439
G1 X133.841 Y158.959 E7.38671
G1 X132.939 Y158.915 E7.41675
G1 X131.902 Y158.771 E7.45157
G1 X131.027 Y158.57 E7.48143
G1 X130.271 Y158.361 E7.50752
G1 X129.03 Y157.994 E7.55056
G1 X126.519 Y157.295 E7.63725
G1 X124.099 Y156.694 E7.72019
G1 X121.583 Y156.145 E7.80584
G1 X119.174 Y155.69 E7.88738
G1 X116.678 Y155.291 E7.97145
G1 X114.145 Y154.959 E8.05642
G1 X111.662 Y154.705 E8.13943
G1 X109.184 Y154.521 E8.22208
G1 X106.593 Y154.404 E8.30834
G1 X104.122 Y154.361 E8.39054
G1 X101.624 Y154.389 E8.47363
G1 X99.081 Y154.489 E8.55828
G1 X95.338 Y154.75 E8.68307
G1 X94.802 Y154.773 E8.70092
G1 X94.083 Y154.785 E8.72483
G1 X83.286 Y154.785 E9.08394
G1 X82.086 Y154.759 E9.12386
G1 X81.354 Y154.718 E9.14825
G1 X80.838 Y154.67 E9.16549
G1 X79.889 Y154.54 E9.19734
G1 X78.572 Y154.248 E9.24221
G1 X77.675 Y154 E9.27317
G1 X77.12 Y153.805 E9.29273
G1 X76.479 Y153.548 E9.3157
G1 X75.944 Y153.318 E9.33507
G1 X74.887 Y152.79 E9.37437
G1 X74.222 Y152.397 E9.40006
G1 X73.74 Y152.09 E9.41907
G1 X72.764 Y151.389 E9.45903
G1 X72.196 Y150.919 E9.48355
G1 X71.759 Y150.533 E9.50295
G1 X71.075 Y149.874 E9.53454
G1 X70.661 Y149.411 E9.5552
G1 X70.139 Y148.793 E9.5821
G1 X69.357 Y147.746 E9.62557
G1 X68.936 Y147.081 E9.65174
G1 X68.64 Y146.575 E9.67124
G1 X68.108 Y145.543 E9.70986
G1 X67.819 Y144.873 E9.73413
G1 X67.61 Y144.341 E9.75314
G1 X67.242 Y143.236 E9.79187
G1 X67.052 Y142.503 E9.81706
G1 X66.926 Y141.945 E9.83609
G1 X66.735 Y140.796 E9.87483
G1 X66.66 Y139.99 E9.90175
G1 X66.607 Y138.992 E9.93499
G1 X66.595 Y138.259 E9.95937
G1 X66.596 Y85.3 E11.7208
G1 X66.606 Y84.591 E11.74438
G1 X66.643 Y83.777 E11.77148
G1 X66.722 Y82.894 E11.80097
G1 X66.923 Y81.638 E11.84328
G1 X67.077 Y80.967 E11.86617
G1 X67.205 Y80.467 E11.88334
G1 X67.539 Y79.406 E11.92034
G1 X67.839 Y78.644 E11.94757
G1 X68.067 Y78.12 E11.96658
G1 X68.616 Y77.03 E12.00717
G1 X68.985 Y76.409 E12.0312
G1 X69.299 Y75.917 E12.05061
G1 X69.946 Y75.01 E12.08767
G1 X70.457 Y74.391 E12.11436
G1 X70.838 Y73.958 E12.13355
G1 X71.681 Y73.105 E12.17343
G0 F6000 X71.966 Y73.386
G1 F1200 X72.457 Y72.954 E12.19519
G1 X72.873 Y72.607 E12.2132
G1 X73.753 Y71.949 E12.24975
G1 X74.475 Y71.487 E12.27826
G1 X74.956 Y71.203 E12.29684
G1 X75.989 Y70.668 E12.33553
G1 X76.646 Y70.384 E12.35934
G1 X77.167 Y70.178 E12.37797
G1 X78.3 Y69.803 E12.41766
G1 X78.952 Y69.637 E12.44004
G1 X79.49 Y69.515 E12.45839
G1 X80.645 Y69.322 E12.49734
G1 X81.447 Y69.247 E12.52413
G1 X82.095 Y69.208 E12.54572
G1 X82.71 Y69.19 E12.56618
G1 X93.89 Y69.185 E12.93803
G1 X94.925 Y69.203 E12.97246
G1 X95.628 Y69.239 E12.99587
G1 X96.204 Y69.289 E13.0151
G1 X97.1 Y69.406 E13.04516
G1 X97.602 Y69.506 E13.06218
G1 X98.498 Y69.708 E13.09273
G1 X99.498 Y69.986 E13.12725
G1 X102.423 Y70.958 E13.22977
G1 X104.853 Y71.685 E13.31413
G1 X107.305 Y72.342 E13.39856
G1 X109.707 Y72.914 E13.48069
G1 X112.263 Y73.447 E13.56753
G1 X114.722 Y73.888 E13.65062
G1 X117.216 Y74.262 E13.7345
G1 X119.749 Y74.569 E13.81936
G1 X122.215 Y74.798 E13.90174
G1 X124.781 Y74.963 E13.98726
G1 X127.309 Y75.053 E14.07139
G1 X129.262 Y75.075 E14.13635
G1 X169.569 Y75.076 E15.47697
G1 X170.284 Y75.087 E15.50075
G1 X171.221 Y75.143 E15.53197
G1 X172.149 Y75.282 E15.56318
G1 X173.062 Y75.503 E15.59443
G1 X173.918 Y75.791 E15.62447
G1 X174.81 Y76.181 E15.65685
G1 X175.631 Y76.634 E15.68803
G1 X176.382 Y77.136 E15.71808
G1 X177.141 Y77.748 E15.75051
G1 X177.815 Y78.401 E15.78172
G1 X178.429 Y79.11 E15.81292
G1 X178.979 Y79.871 E15.84414
G1 X179.441 Y80.647 E15.87418
G1 X179.864 Y81.524 E15.90657
G1 X180.193 Y82.402 E15.93775
G1 X180.444 Y83.307 E15.96899
G1 X180.615 Y84.234 E16.00034
G1 X180.71 Y85.364 E16.03806
G1 X180.724 Y86.005 E16.05938
G1 X180.723 Y133.366 E17.63462
G1 X180.712 Y134.109 E17.65933
G1 X180.657 Y135.046 E17.69055
G1 X180.518 Y135.974 E17.72176
G1 X180.297 Y136.887 E17.753
G1 X179.997 Y137.776 E17.78421
G1 X179.62 Y138.635 E17.81541
G1 X179.168 Y139.457 E17.84661
G1 X178.645 Y140.237 E17.87785
G1 X178.055 Y140.968 E17.90909
G1 X177.403 Y141.642 E17.94028
G1 X176.722 Y142.235 E17.97031
G1 X175.932 Y142.805 E18.00271
G1 X175.126 Y143.286 E18.03393
G1 X174.281 Y143.692 E18.06511
G1 X173.399 Y144.024 E18.09646
G1 X172.351 Y144.307 E18.13256
G1 X169.547 Y144.912 E18.22797
G1 X167.132 Y145.508 E18.3107
G1 X164.678 Y146.185 E18.39537
G1 X162.25 Y146.931 E18.47986
G1 X159.872 Y147.736 E18.56336
G1 X157.473 Y148.624 E18.64844
G1 X155.151 Y149.56 E18.73171
G1 X152.807 Y150.582 E18.81676
G1 X150.548 Y151.643 E18.89977
G1 X148.262 Y152.798 E18.98495
G1 X146.063 Y153.987 E19.0681
G1 X142.945 Y155.814 E19.1883
G1 X142.327 Y156.191 E19.21237
G1 X141.506 Y156.643 E19.24354
G1 X140.649 Y157.02 E19.27468
G1 X139.871 Y157.288 E19.30205
G1 X138.866 Y157.589 E19.33695
G1 X137.38 Y158.007 E19.38829
G1 X136.645 Y158.204 E19.4136
G1 X135.728 Y158.404 E19.44481
G1 X134.797 Y158.523 E19.47603
G1 X133.86 Y158.559 E19.50722
G1 X132.958 Y158.515 E19.53726
G1 X131.992 Y158.381 E19.56969
G1 X131.117 Y158.18 E19.59955
G1 X130.384 Y157.977 E19.62485
G1 X129.143 Y157.611 E19.66788
G1 X126.615 Y156.907 E19.75517
G1 X124.184 Y156.303 E19.83848
G1 X121.668 Y155.754 E19.92413
G1 X119.237 Y155.295 E20.00641
G1 X116.73 Y154.894 E20.09086
G1 X114.197 Y154.562 E20.17583
G1 X111.696 Y154.306 E20.25944
G1 X109.202 Y154.121 E20.34262
G1 X106.611 Y154.004 E20.42889
G1 X104.125 Y153.961 E20.51158
G1 X101.608 Y153.989 E20.59531
G1 X99.065 Y154.089 E20.67995
G1 X95.321 Y154.35 E20.80478
G1 X94.795 Y154.373 E20.82229
G1 X94.076 Y154.385 E20.84621
G1 X83.294 Y154.385 E21.20482
G1 X82.108 Y154.36 E21.24427
G1 X81.391 Y154.32 E21.26816
G1 X80.892 Y154.274 E21.28483
G1 X79.97 Y154.148 E21.31578
G1 X79.513 Y154.053 E21.3313
G1 X78.678 Y153.862 E21.35979
G1 X77.807 Y153.622 E21.38984
G1 X77.269 Y153.434 E21.4088
G1 X76.637 Y153.181 E21.43144
G1 X76.123 Y152.96 E21.45005
G1 X75.066 Y152.432 E21.48935
G1 X74.436 Y152.059 E21.5137
G1 X73.973 Y151.765 E21.53194
G1 X73.019 Y151.081 E21.57098
G1 X72.461 Y150.619 E21.59508
G1 X72.037 Y150.245 E21.61388
G1 X71.353 Y149.586 E21.64547
G1 X70.966 Y149.153 E21.66479
G1 X70.459 Y148.554 E21.69089
G1 X69.695 Y147.532 E21.73333
G1 X69.281 Y146.879 E21.75904
G1 X68.995 Y146.391 E21.77786
G1 X68.475 Y145.384 E21.81555
G1 X68.191 Y144.726 E21.83939
G1 X67.989 Y144.214 E21.8577
G1 X67.629 Y143.136 E21.8955
G1 X67.442 Y142.415 E21.92027
G1 X67.321 Y141.879 E21.93855
G1 X67.13 Y140.73 E21.97729
G1 X67.059 Y139.969 E22.00271
G1 X67.007 Y138.985 E22.03548
G1 X66.995 Y138.259 E22.05963
G1 X66.996 Y85.306 E23.82086
G1 X67.006 Y84.609 E23.84404
G1 X67.043 Y83.795 E23.87114
G1 X67.117 Y82.957 E23.89912
G1 X67.313 Y81.727 E23.94055
G1 X67.464 Y81.066 E23.9631
G1 X67.587 Y80.587 E23.97955
G1 X67.921 Y79.526 E24.01654
G1 X68.206 Y78.804 E24.04236
G1 X68.434 Y78.28 E24.06137
G1 X68.973 Y77.21 E24.10122
G1 X69.323 Y76.624 E24.12392
G1 X69.625 Y76.149 E24.14264
G1 X70.272 Y75.242 E24.1797
G1 X70.757 Y74.655 E24.20502
G1 X71.123 Y74.239 E24.22345
G1 X71.966 Y73.386 E24.26334
G0 F6000 X72.231 Y73.686
G1 F1200 X72.713 Y73.261 E24.28471
G1 X73.113 Y72.927 E24.30204
G1 X73.993 Y72.269 E24.33859
G1 X74.678 Y71.831 E24.36563
G1 X75.14 Y71.558 E24.38348
G1 X76.148 Y71.035 E24.42125
G1 X76.794 Y70.756 E24.44466
G1 X77.293 Y70.558 E24.46251
G1 X78.399 Y70.191 E24.50127
G1 X79.04 Y70.027 E24.52328
G1 X79.556 Y69.91 E24.54087
G1 X80.711 Y69.717 E24.57982
G1 X81.471 Y69.646 E24.60521
G1 X82.107 Y69.608 E24.6264
G1 X82.71 Y69.59 E24.64647
G1 X93.883 Y69.585 E25.01808
G1 X94.904 Y69.602 E25.05204
G1 X95.594 Y69.638 E25.07503
G1 X96.152 Y69.686 E25.09365
G1 X97.048 Y69.803 E25.12371
G1 X97.514 Y69.896 E25.13951
G1 X98.391 Y70.093 E25.16941
G1 X99.372 Y70.366 E25.20328
G1 X102.297 Y71.338 E25.30579
G1 X104.74 Y72.068 E25.3906
G1 X107.212 Y72.731 E25.47572
G1 X109.625 Y73.306 E25.55823
G1 X112.182 Y73.839 E25.6451
G1 X114.658 Y74.283 E25.72877
G1 X117.157 Y74.658 E25.81281
G1 X119.7 Y74.966 E25.89801
G1 X122.189 Y75.197 E25.98115
G1 X124.767 Y75.363 E26.06707
G1 X127.295 Y75.453 E26.15121
G1 X129.258 Y75.475 E26.2165
G1 X169.563 Y75.476 E27.55705
G1 X170.261 Y75.486 E27.58027
G1 X171.163 Y75.539 E27.61032
G1 X172.056 Y75.671 E27.64035
G1 X172.934 Y75.882 E27.67038
G1 X173.79 Y76.17 E27.70042
G1 X174.617 Y76.532 E27.73045
G1 X175.409 Y76.967 E27.7605
G1 X176.16 Y77.469 E27.79054
G1 X176.863 Y78.036 E27.82058
G1 X177.513 Y78.663 E27.85062
G1 X178.105 Y79.345 E27.88066
G1 X178.635 Y80.076 E27.91069
G1 X179.097 Y80.852 E27.94073
G1 X179.49 Y81.665 E27.97076
G1 X179.808 Y82.51 E28.00079
G1 X180.051 Y83.38 E28.03083
G1 X180.216 Y84.268 E28.06088
G1 X180.311 Y85.398 E28.09859
G1 X180.324 Y86.005 E28.11879
G1 X180.323 Y133.36 E29.69382
G1 X180.313 Y134.086 E29.71797
G1 X180.261 Y134.988 E29.74802
G1 X180.129 Y135.881 E29.77804
G1 X179.918 Y136.76 E29.80811
G1 X179.631 Y137.616 E29.83814
G1 X179.269 Y138.443 E29.86816
G1 X178.835 Y139.235 E29.8982
G1 X178.333 Y139.986 E29.92825
G1 X177.767 Y140.69 E29.95829
G1 X177.14 Y141.34 E29.98833
G1 X176.459 Y141.933 E30.01836
G1 X175.727 Y142.462 E30.0484
G1 X174.952 Y142.926 E30.07844
G1 X174.139 Y143.318 E30.10846
G1 X173.294 Y143.638 E30.13852
G1 X172.267 Y143.916 E30.1739
G1 X169.463 Y144.521 E30.26931
G1 X167.025 Y145.122 E30.35283
G1 X164.571 Y145.8 E30.43751
G1 X162.122 Y146.552 E30.52271
G1 X159.744 Y147.357 E30.60621
G1 X157.334 Y148.249 E30.69169
G1 X154.991 Y149.193 E30.7757
G1 X152.647 Y150.215 E30.86075
G1 X150.378 Y151.281 E30.94413
G1 X148.072 Y152.446 E31.03006
G1 X145.873 Y153.635 E31.11321
G1 X142.743 Y155.469 E31.23387
G1 X142.134 Y155.841 E31.2576
G1 X141.344 Y156.277 E31.28761
G1 X140.518 Y156.642 E31.31765
G1 X139.756 Y156.905 E31.34446
G1 X138.758 Y157.204 E31.37911
G1 X137.277 Y157.621 E31.43029
G1 X136.559 Y157.813 E31.45501
G1 X135.677 Y158.007 E31.48504
G1 X134.781 Y158.123 E31.51509
G1 X133.879 Y158.159 E31.54512
G1 X132.977 Y158.115 E31.57515
G1 X132.082 Y157.991 E31.60521
G1 X131.207 Y157.79 E31.63507
G1 X130.497 Y157.593 E31.65957
G1 X129.256 Y157.228 E31.7026
G1 X126.711 Y156.519 E31.79047
G1 X124.269 Y155.912 E31.87416
G1 X121.753 Y155.363 E31.95981
G1 X119.3 Y154.9 E32.04284
G1 X116.782 Y154.497 E32.12765
G1 X114.249 Y154.165 E32.21262
G1 X111.73 Y153.907 E32.29684
G1 X109.22 Y153.721 E32.38055
G1 X106.629 Y153.604 E32.46682
G1 X104.128 Y153.561 E32.55002
G1 X101.592 Y153.589 E32.63437
G1 X99.049 Y153.689 E32.71901
G1 X95.303 Y153.95 E32.84391
G1 X94.788 Y153.973 E32.86105
G1 X94.069 Y153.985 E32.88497
G1 X83.302 Y153.985 E33.24308
G1 X82.13 Y153.961 E33.28207
G1 X81.427 Y153.922 E33.30549
G1 X80.946 Y153.878 E33.32156
G1 X80.051 Y153.756 E33.3516
G1 X79.602 Y153.663 E33.36685
G1 X78.784 Y153.476 E33.39476
G1 X77.913 Y153.236 E33.42481
G1 X77.417 Y153.062 E33.44229
G1 X76.795 Y152.814 E33.46456
G1 X76.302 Y152.602 E33.48241
G1 X75.245 Y152.074 E33.52171
G1 X74.65 Y151.721 E33.54472
G1 X74.206 Y151.44 E33.5622
G1 X73.274 Y150.773 E33.60032
G1 X72.726 Y150.319 E33.62398
G1 X72.302 Y149.945 E33.64279
G1 X71.651 Y149.319 E33.67283
G1 X71.271 Y148.894 E33.69179
G1 X70.779 Y148.314 E33.71709
G1 X70.033 Y147.318 E33.75847
G1 X69.626 Y146.676 E33.78376
G1 X69.35 Y146.207 E33.80186
G1 X68.842 Y145.225 E33.83863
G1 X68.563 Y144.579 E33.86203
G1 X68.368 Y144.087 E33.87964
G1 X68.016 Y143.036 E33.9165
G1 X67.832 Y142.327 E33.94086
G1 X67.716 Y141.813 E33.95839
G1 X67.525 Y140.664 E33.99713
G1 X67.458 Y139.948 E34.02105
G1 X67.407 Y138.978 E34.05336
G1 X67.395 Y138.259 E34.07727
G1 X67.396 Y85.312 E35.8383
G1 X67.406 Y84.627 E35.86108
G1 X67.443 Y83.813 E35.88818
G1 X67.512 Y83.02 E35.91466
G1 X67.703 Y81.816 E35.95521
G1 X67.852 Y81.165 E35.97742
G1 X67.969 Y80.707 E35.99314
G1 X68.303 Y79.646 E36.03014
G1 X68.573 Y78.963 E36.05456
G1 X68.791 Y78.46 E36.0728
G1 X69.317 Y77.415 E36.11171
G1 X69.661 Y76.838 E36.13405
G1 X69.951 Y76.381 E36.15205
G1 X70.598 Y75.474 E36.18911
G1 X71.057 Y74.919 E36.21306
G1 X71.408 Y74.52 E36.23074
G1 X72.231 Y73.686 E36.26971
G1 F2700 E31.26971
G0 F6000 X83.74 Y134.063
G1 F2700 E36.26971
G1 F1200 X83.861 Y134.246 E36.27701
G1 X83.937 Y134.326 E36.28068
G1 X83.971 Y134.445 E36.28479
G1 X83.927 Y134.738 E36.29465
G1 X83.956 Y135.071 E36.30576
G1 X84.063 Y135.387 E36.31686
G1 X84.311 Y135.748 E36.33143
G1 X84.375 Y135.815 E36.33451
G1 X84.421 Y135.975 E36.34005
G1 X84.408 Y136.062 E36.34297
G1 X84.424 Y136.251 E36.34928
G1 X84.068 Y136.147 E36.36162
G1 X83.92 Y135.999 E36.36858
G1 X83.894 Y135.91 E36.37166
G1 X83.942 Y135.62 E36.38144
G1 X83.918 Y135.287 E36.39254
